X:1
T:Title
%%score { ( 1 3 ) | 2 }
L:1/8
Q:1/4=108
M:4/4
K:Eb
V:1 treble nm="Grand Piano"
V:3 treble 
V:2 bass 
V:1
 [GB]3 [Ac] [GB]2 [B,FA]2 | [B,EG]3 [B,FA] [B,EG]2 [B,DF]2 | [G,E]3 [G,E] [DF]2 [DF]2 | G2 B2 F4 | %4
w: E.~D.~Keck * * *||||
 [GB]3 [Ac] [GB]2 G2 |[M:9/8] A2 B- B c2 A3 |[M:4/4] G3 [A,DF] [G,E]2 [CEA]2 | %7
w: |||
[M:6/4] [B,EG]3 [A,DF]3 [G,E]6 |[M:4/4] B8 | c8 | d3 d c2 [Ad]2 | [Ge]2 [Ac]2 [GB]4 | B8 | %13
w: ||||||
[M:9/8] c3- c e2- e3 |[M:4/4] d>d d>d [Ac]2 [Ad]2 | [Ge]6 z2 |] %16
w: |||
V:2
 [E,E]3 [E,E] [E,E]2 E,2 | E,3 E, E,2 B,,2 | C,3 C, [B,,B,]2 [B,,B,]2 | [E,B,E]2 [G,B,E]2 [B,D]4 | %4
 [E,E]3 [E,E] [E,E]2 [E,B,E]2 |[M:9/8] [F,B,D]2 [G,E]- [G,E] [A,E]2 [A,CE]3 | %6
[M:4/4] [B,E]3 B,, C,2 A,,2 |[M:6/4] B,,3 B,,3 E,6 |[M:4/4] [E,E]3 [E,E] [E,E]2 [E,E]2 | %9
 [A,EA]3 [A,E] [A,E]2 [A,E]2 | [B,A]3 [B,A] [B,A]2[K:bass] [B,,B,]2 | [E,B,]2 [E,E]2 [E,E]4 | %12
 [E,E]3 [E,E] [E,E]2 [E,E]2 |[M:9/8][K:treble] [A,EA]3 [A,E] [A,CA]2 [A,C]3 | %14
[M:4/4] [B,A]>[B,A] [B,A]>[B,A][K:bass] [B,,B,]2 [B,,B,]2 | [E,B,]6 z2 |] %16
V:3
 x8 | x8 | x8 | x8 | x8 |[M:9/8] x9 |[M:4/4] x8 |[M:6/4] x12 |[M:4/4] G3 G G2 G2 | z2 z A A2 A2 | %10
 x8 | x8 | G3 G G2 G2 |[M:9/8] z3 .A3 A3 |[M:4/4] x8 | x8 |] %16

